svg/700/outlined/aq_indoor-fill.svg

<svg xmlns="http://www.w3.org/2000/svg" width="48" height="48" viewBox="0 -960 960 960"><path d="M550.026-273Q569-273 587-280.5q18-7.5 32-21.5l35-35-35-35-35 35q-6.789 7.091-15.842 10.045Q559.105-324 550.053-324q-9.053 0-18.144-2.955Q522.818-329.909 516-337l-37.269-37.269Q465-387 446.974-394q-18.025-7-37-7Q391-401 373-393.759q-18 7.242-32 19.759l-35 35 35 35 35-35q6.789-7.091 15.842-10.045Q400.895-352 409.947-352q9.053 0 18.144 2.955Q437.182-346.091 444-339l37.269 37.269Q495-288 513.026-280.5q18.025 7.5 37 7.5Zm0-120Q569-393 587-400.5q18-7.5 32-21.5l35-35-35-35-35 35q-6.789 7.091-15.842 10.045Q559.105-444 550.053-444q-9.053 0-18.144-2.955Q522.818-449.909 516-457l-37.269-37.269Q465-507 446.974-514q-18.025-7-37-7Q391-521 373-513.759q-18 7.242-32 19.759l-35 35 35 35 35-35q6.789-7.091 15.842-10.045Q400.895-472 409.947-472q9.053 0 18.144 2.955Q437.182-466.091 444-459l37.269 37.269Q495-408 513.026-400.5q18.025 7.5 37 7.5Zm0-120Q569-513 587-520.5q18-7.5 32-21.5l35-35-35-35-35 35q-6.789 7.091-15.842 10.045Q559.105-564 550.053-564q-9.053 0-18.144-2.955Q522.818-569.909 516-577l-37.269-37.269Q465-627 446.974-634q-18.025-7-37-7Q391-641 373-633.759q-18 7.242-32 19.759l-35 35 35 35 35-35q7-6 16-9.5t18-3.5q9 0 18.091 2.955Q437.182-586.091 444-579l37.269 37.269Q495-528 513.026-520.5q18.025 7.5 37 7.5ZM135-135v-518l345-259 346 259v518H135Z"/></svg>

<svg xmlns="http://www.w3.org/2000/svg" width="48" height="48" viewBox="0 -960 960 960"><path d="M550.03-273q18.97 0 36.97-7.5t32-21.5l35-35-35-35-35 35q-6.79 7.09-15.84 10.05-9.05 2.95-18.11 2.95-9.05 0-18.14-2.95-9.09-2.96-15.91-10.05l-37.27-37.27Q465-387 446.97-394q-18.02-7-37-7-18.97 0-36.97 7.24T341-374l-35 35 35 35 35-35q6.79-7.09 15.84-10.05 9.05-2.95 18.11-2.95 9.05 0 18.14 2.95 9.09 2.96 15.91 10.05l37.27 37.27Q495-288 513.03-280.5q18.02 7.5 37 7.5Zm0-120q18.97 0 36.97-7.5t32-21.5l35-35-35-35-35 35q-6.79 7.09-15.84 10.05-9.05 2.95-18.11 2.95-9.05 0-18.14-2.95-9.09-2.96-15.91-10.05l-37.27-37.27Q465-507 446.97-514q-18.02-7-37-7-18.97 0-36.97 7.24T341-494l-35 35 35 35 35-35q6.79-7.09 15.84-10.05 9.05-2.95 18.11-2.95 9.05 0 18.14 2.95 9.09 2.96 15.91 10.05l37.27 37.27Q495-408 513.03-400.5q18.02 7.5 37 7.5Zm0-120q18.97 0 36.97-7.5t32-21.5l35-35-35-35-35 35q-6.79 7.09-15.84 10.05-9.05 2.95-18.11 2.95-9.05 0-18.14-2.95-9.09-2.96-15.91-10.05l-37.27-37.27Q465-627 446.97-634q-18.02-7-37-7-18.97 0-36.97 7.24T341-614l-35 35 35 35 35-35q7-6 16-9.5t18-3.5q9 0 18.09 2.95 9.09 2.96 15.91 10.05l37.27 37.27Q495-528 513.03-520.5q18.02 7.5 37 7.5ZM135-135v-518l345-259 346 259v518H135Z"/></svg>
